X: 228
T: Charlie Hunter
C:Bobby MacLeod
R: jig
M: 6/8
L: 1/8
K:Dmaj
"D"DFA "G"DGB|"D"Adf a2g|fef "G"Bcd|"A"ecA GFE|
"D"DFA "G"DGB|"D"Adf a2g|fef "A"gec|1 edc "D"d3:|2 edc "D"dfg||
|:"D"afd dcd|"G"BGF G2F|"Em"EGB e2d|"A"cec Aag|
"D"fdA DFA|"G"GBd g2g|"D"fef "A"gec|1 edc "D"dfg:|2 edc "D"d3||


